docs/icons/turbo.svg

<svg width="104" height="104" viewBox="0 0 104 104" fill="none" xmlns="http://www.w3.org/2000/svg">
<g clip-path="url(#clip0_1_17)">
<path d="M26.0192 7C42.0962 -2.28203 61.9038 -2.28203 77.9808 7C94.0577 16.282 103.962 33.4359 103.962 52C103.962 70.5641 94.0577 87.718 77.9808 97C61.9038 106.282 42.0962 106.282 26.0192 97C9.94229 87.718 0.038475 70.5641 0.038475 52C0.038475 33.4359 9.94229 16.282 26.0192 7Z" fill="black" fill-opacity="0.64"/>
<path d="M26.0192 7C42.0962 -2.28203 61.9038 -2.28203 77.9808 7C94.0577 16.282 103.962 33.4359 103.962 52C103.962 70.5641 94.0577 87.718 77.9808 97C61.9038 106.282 42.0962 106.282 26.0192 97C9.94229 87.718 0.038475 70.5641 0.038475 52C0.038475 33.4359 9.94229 16.282 26.0192 7Z" fill="url(#paint0_linear_1_17)" fill-opacity="0.15"/>
<path d="M26.0192 7C42.0962 -2.28203 61.9038 -2.28203 77.9808 7C94.0577 16.282 103.962 33.4359 103.962 52C103.962 70.5641 94.0577 87.718 77.9808 97C61.9038 106.282 42.0962 106.282 26.0192 97C9.94229 87.718 0.038475 70.5641 0.038475 52C0.038475 33.4359 9.94229 16.282 26.0192 7Z" fill="black" fill-opacity="0.5"/>
<path d="M0.538475 52C0.538475 33.6146 10.347 16.6257 26.2692 7.43301C42.1915 -1.7597 61.8085 -1.7597 77.7308 7.43301C93.653 16.6257 103.462 33.6146 103.462 52C103.462 70.3854 93.653 87.3743 77.7308 96.567C61.8085 105.76 42.1915 105.76 26.2692 96.567C10.347 87.3743 0.538475 70.3854 0.538475 52Z" stroke="url(#paint1_radial_1_17)" stroke-opacity="0.15"/>
<path d="M0.538475 52C0.538475 33.6146 10.347 16.6257 26.2692 7.43301C42.1915 -1.7597 61.8085 -1.7597 77.7308 7.43301C93.653 16.6257 103.462 33.6146 103.462 52C103.462 70.3854 93.653 87.3743 77.7308 96.567C61.8085 105.76 42.1915 105.76 26.2692 96.567C10.347 87.3743 0.538475 70.3854 0.538475 52Z" stroke="url(#paint2_linear_1_17)" stroke-opacity="0.5"/>
<path d="M51.8878 37.9262C44.1892 37.9262 37.9258 44.1896 37.9258 51.8882C37.9258 59.5868 44.1892 65.8502 51.8878 65.8502C59.5864 65.8502 65.8498 59.5868 65.8498 51.8882C65.8498 44.1896 59.5864 37.9262 51.8878 37.9262ZM51.8878 59.1136C47.8968 59.1136 44.6624 55.8792 44.6624 51.8882C44.6624 47.8972 47.8968 44.6628 51.8878 44.6628C55.8788 44.6628 59.1132 47.8972 59.1132 51.8882C59.1132 55.8792 55.8788 59.1136 51.8878 59.1136Z" fill="white"/>
<path fill-rule="evenodd" clip-rule="evenodd" d="M53.0581 35.633V30.42C64.3889 31.0258 73.3901 40.4066 73.3901 51.8882C73.3901 63.3698 64.3889 72.748 53.0581 73.3564V68.1434C61.5029 67.5402 68.1901 60.4838 68.1901 51.8882C68.1901 43.2926 61.5029 36.2362 53.0581 35.633ZM39.5745 62.5482C37.3359 59.9638 35.8929 56.6722 35.6355 53.0582H30.4199C30.6903 58.1152 32.7131 62.7042 35.8825 66.2376L39.5719 62.5482H39.5745ZM50.7182 73.3564V68.1434C47.1016 67.886 43.81 66.4456 41.2256 64.2044L37.5362 67.8938C41.0722 71.0658 45.6612 73.086 50.7156 73.3564H50.7182Z" fill="url(#paint3_linear_1_17)"/>
</g>
<defs>
<linearGradient id="paint0_linear_1_17" x1="52" y1="-8" x2="52" y2="112" gradientUnits="userSpaceOnUse">
<stop stop-color="#3286F1"/>
<stop offset="1" stop-color="#C43AC4"/>
</linearGradient>
<radialGradient id="paint1_radial_1_17" cx="0" cy="0" r="1" gradientUnits="userSpaceOnUse" gradientTransform="translate(52 -7.99999) rotate(90) scale(154.286 154.286)">
<stop stop-color="white"/>
<stop offset="1" stop-color="white"/>
</radialGradient>
<linearGradient id="paint2_linear_1_17" x1="-8" y1="-8" x2="18.25" y2="40.75" gradientUnits="userSpaceOnUse">
<stop stop-color="white"/>
<stop offset="1" stop-color="white" stop-opacity="0"/>
</linearGradient>
<linearGradient id="paint3_linear_1_17" x1="53.9007" y1="33.4389" x2="32.7679" y2="54.5717" gradientUnits="userSpaceOnUse">
<stop stop-color="#0096FF"/>
<stop offset="1" stop-color="#FF1E56"/>
</linearGradient>
<clipPath id="clip0_1_17">
<rect width="104" height="104" fill="white"/>
</clipPath>
</defs>
</svg>

<svg xmlns="http://www.w3.org/2000/svg" xmlns:xlink="http://www.w3.org/1999/xlink" width="104" height="104" fill="none" xmlns:v="https://vecta.io/nano"><g clip-path="url(#E)"><use xlink:href="#F" fill="#000" fill-opacity=".64"/><use xlink:href="#F" fill="url(#A)" fill-opacity=".15"/><use xlink:href="#F" fill="#000" fill-opacity=".5"/><use xlink:href="#G" stroke="url(#B)" stroke-opacity=".15"/><use xlink:href="#G" stroke="url(#C)" stroke-opacity=".5"/><path d="M51.888 37.926c-7.699 0-13.962 6.263-13.962 13.962S44.189 65.85 51.888 65.85 65.85 59.587 65.85 51.888s-6.263-13.962-13.962-13.962zm0 21.187c-3.991 0-7.225-3.234-7.225-7.225s3.234-7.225 7.225-7.225 7.225 3.234 7.225 7.225-3.234 7.225-7.225 7.225z" fill="#fff"/><path fill-rule="evenodd" d="M53.058 35.633V30.42c11.331.606 20.332 9.987 20.332 21.468s-9.001 20.86-20.332 21.468v-5.213c8.445-.603 15.132-7.66 15.132-16.255s-6.687-15.652-15.132-16.255zM39.575 62.548c-2.239-2.584-3.682-5.876-3.939-9.49H30.42c.27 5.057 2.293 9.646 5.463 13.179l3.689-3.689h.003zm11.144 10.808v-5.213c-3.617-.257-6.908-1.698-9.493-3.939l-3.689 3.689c3.536 3.172 8.125 5.192 13.179 5.463h.003z" fill="url(#D)"/></g><defs><linearGradient id="A" x1="52" y1="-8" x2="52" y2="112" gradientUnits="userSpaceOnUse"><stop stop-color="#3286f1"/><stop offset="1" stop-color="#c43ac4"/></linearGradient><radialGradient id="B" cx="0" cy="0" r="1" gradientUnits="userSpaceOnUse" gradientTransform="translate(52 -7.99999) rotate(90) scale(154.286 154.286)"><stop stop-color="#fff"/></radialGradient><linearGradient id="C" x1="-8" y1="-8" x2="18.25" y2="40.75" gradientUnits="userSpaceOnUse"><stop stop-color="#fff"/><stop offset="1" stop-color="#fff" stop-opacity="0"/></linearGradient><linearGradient id="D" x1="53.901" y1="33.439" x2="32.768" y2="54.572" gradientUnits="userSpaceOnUse"><stop stop-color="#0096ff"/><stop offset="1" stop-color="#ff1e56"/></linearGradient><clipPath id="E"><path fill="#fff" d="M0 0h104v104H0z"/></clipPath><path id="F" d="M26.019 7c16.077-9.282 35.885-9.282 51.962 0s25.981 26.436 25.981 45-9.904 35.718-25.981 45-35.885 9.282-51.962 0S.038 70.564.038 52 9.942 16.282 26.019 7z"/><path id="G" d="M0.538475 52C0.538475 33.6146 10.347 16.6257 26.2692 7.43301C42.1915 -1.7597 61.8085 -1.7597 77.7308 7.43301C93.653 16.6257 103.462 33.6146 103.462 52C103.462 70.3854 93.653 87.3743 77.7308 96.567C61.8085 105.76 42.1915 105.76 26.2692 96.567C10.347 87.3743 0.538475 70.3854 0.538475 52Z"/></defs></svg>
